!!!OTL: 602. Abtrumpfen zwischen Burschen und Maedchen.
!!!ODT: 1858
!!!ARE: Europa, Mitteleuropa, Deutschland, Neustadt - Eberswalde, Coethen
!!!SCT: E0602
!!!TXL: @@DE
!!!YEM: Copyright 1995, estate of Helmut Schaffrath.
**kern	**text
*ICvox	*
*M3/4	*
*k[f#]	*
*G:	*
!LO:TX:a:t=Cöthen bei Neuſtadt-Eberswalde. 1858. Von Mädchen gehört.	!
{4g	Wir
=1	=1
4g	ſi-
4d	-tʒen
4b/	ſo
=2	=2
4b/	fröh-
4g}	-lich,
{4dd	ſo
=3	=3
4dd	ein-
8eeL	-ſam
8ddJ	.
8ccL	bei-
8bJ	.
=4	=4
4b/	-ſammen,
4a}	.
{4g	Wir
=5	=5
4g	ſi-
4d	-tʒen
4b/	ſo
=6	=6
4b/	fröh-
4g}	-lich,
{4dd	ſo
=7	=7
4dd	ein-
8eeL	-ſam
8ddJ	.
8ccL	bei-
8bJ	.
=8	=8
4b	-ſammen,
4a}	.
{8dd	ja
8dd	ja
=9	=9
(4cc	ja,
4a)	.
8d	und
8d	wir
=10	=10
4g	al-
4b/}	-le,
{8dd	ja
8dd	ja
=11	=11
(4cc	ja
4a)	.
8d	und
8d	wir
=12	=12
4g	al-
4b}	-le,
{8g	und
8g	wir
=13	=13
4ee	al-
4ee	-le
4ee	wir
=14	=14
4.dd	ken-
8cc}	-nen
{8bL	uns
8ddJ	.
=15	=15
4dd	ja
4cc	ſchon
8aL	ſo
8ccJ	.
=16	=16
4cc	lan-
4b}	-ge.
{8g	und
8g	wir
=17	=17
4ee	al-
4ee	-le
4ee	wir
=18	=18
4.dd	ken-
8cc}	-nen
{8bL	uns
8ddJ	.
=19	=19
4dd	ja
4cc	ſchon
8a	ſo
=20	=20
4a	lan-
4g}	-ge.
==	==
!!!AGN: Liebes - Lied
!!!ONB: ESAC (Essen Associative Code) Database: ERK1
!!!AMT: simple triple
!!!AIN: vox
!!!EED: Helmut Schaffrath
!!!EEV: 1.0
!!!GTL: Liebeslieder [Neuere (aus dem 18. bis 19. Jahrh.) - Liebeslust]
!!!URL-scan: https://rosdok.uni-rostock.de/mcrviewer/recordIdentifier/rosdok_ppn745177662/iview2/phys_0426.iview2?x=-128.77276441889308&y=227.87812454183586&scale=0.5870222003877485&rotation=0&layout=singlePageLayout
!!!ENC: Anna Maria Matuszewska
!!!EEV: 2024/11/12
*-	*-
